X:151
T: VEILE ROSE BLIAEMELEIN
N: E1262
O: Europa, Mitteleuropa, Deutschland; Frankreich, Elsass
R: Ansinge -, Brauchtums - Lied, Kirchen - Fest, Johannis - Tag
M: 2/4
L: 1/16
K: G
 | G3AB2c2 | d3ed2
B2 | c3Bc2d2 | B3AB2
D2 | G2G2A2A2 | B2d2d2
D2 | G2G2A2A2 | B2d2d4 |
B2d2G4 | B2d2G4 |
A2A2B2B2 | d2d2G4

@@@ Tune index: 4835
